icons/arcade.svg

<svg width="24" height="24" viewBox="0 0 24 24" fill="none" xmlns="http://www.w3.org/2000/svg">
<path fill-rule="evenodd" clip-rule="evenodd" d="M12 4C11.4477 4 11 4.44772 11 5C11 5.55228 11.4477 6 12 6C12.5523 6 13 5.55228 13 5C13 4.44772 12.5523 4 12 4ZM9 5C9 3.34315 10.3431 2 12 2C13.6569 2 15 3.34315 15 5C15 6.30622 14.1652 7.41746 13 7.82929V8.84598L20.4008 12.0838C20.7648 12.2431 21 12.6027 21 13V18C21 18.3973 20.7648 18.7569 20.4008 18.9162L12.4008 22.4162C12.1453 22.5279 11.8547 22.5279 11.5992 22.4162L3.59918 18.9162C3.23519 18.7569 3 18.3973 3 18V13C3 12.6027 3.23519 12.2431 3.59918 12.0838L11 8.84598V7.82929C9.83481 7.41746 9 6.30622 9 5ZM11 11.029L6.60277 12.9528L12.0074 15.4052L17.5051 13L13 11.029V13C13 13.5523 12.5523 14 12 14C11.4477 14 11 13.5523 11 13V11.029ZM19 14.529L12.4008 17.4162C12.141 17.5298 11.8451 17.5278 11.5868 17.4106L5 14.4218V17.346L12 20.4085L19 17.346V14.529Z" fill="black"/>
</svg>

<svg
  width="24"
  height="24"
  viewBox="0 0 24 24"
  xmlns="http://www.w3.org/2000/svg"
>
  <path
    fill-rule="evenodd"
    clip-rule="evenodd"
    d="M12 4a1 1 0 1 0 0 2 1 1 0 0 0 0-2zM9 5a3 3 0 1 1 4 2.83v1.016l7.4 3.238A1 1 0 0 1 21 13v5a1 1 0 0 1-.6.916l-8 3.5a1 1 0 0 1-.8 0l-8-3.5A1 1 0 0 1 3 18v-5a1 1 0 0 1 .6-.916L11 8.846V7.829A3.001 3.001 0 0 1 9 5zm2 6.029l-4.397 1.924 5.404 2.452L17.505 13 13 11.029V13a1 1 0 1 1-2 0v-1.971zm8 3.5l-6.6 2.887a1 1 0 0 1-.813-.005L5 14.42v2.925l7 3.063 7-3.063v-2.817z"
  />
</svg>
